material/.icons/material/garage-open-variant.svg

<svg xmlns="http://www.w3.org/2000/svg" viewBox="0 0 24 24"><path d="M22 9v11h-2v-9H4v9H2V9l10-4 10 4m-3 3H5v2h14v-2z"/></svg>

<?xml version="1.0" encoding="UTF-8"?><!DOCTYPE svg PUBLIC "-//W3C//DTD SVG 1.1//EN" "http://www.w3.org/Graphics/SVG/1.1/DTD/svg11.dtd"><svg xmlns="http://www.w3.org/2000/svg" xmlns:xlink="http://www.w3.org/1999/xlink" version="1.1" id="mdi-garage-open-variant" width="24" height="24" viewBox="0 0 24 24"><path d="M22 9V20H20V11H4V20H2V9L12 5L22 9M19 12H5V14H19V12Z" /></svg>
